icons/svg/16x16/bookmark/outline.svg

<svg xmlns="http://www.w3.org/2000/svg" width="16" height="16" viewBox="0 0 16 16">
  <path fill-rule="evenodd" d="M11,12.4678 L8.771,11.1308 C8.297,10.8458 7.703,10.8458 7.229,11.1308 L5,12.4678 L5,2.9998 L11,2.9998 L11,12.4678 Z M11,0.9998 L5,0.9998 C3.896,0.9998 3,1.8958 3,2.9998 L3,15.9998 L8,12.9998 L13,15.9998 L13,2.9998 C13,1.8958 12.104,0.9998 11,0.9998 L11,0.9998 Z"/>
</svg>

<svg width="16" height="16" fill="none" xmlns="http://www.w3.org/2000/svg">
  <path fill-rule="evenodd" clip-rule="evenodd" d="M11 12.468L8.771 11.13a1.497 1.497 0 00-1.542 0L5 12.468V3h6v9.468zM11 1H5a2 2 0 00-2 2v13l5-3 5 3V3a2 2 0 00-2-2z" fill="#000"/>
</svg>
